qml/icons/navigation/fork-slight-right-white.svg

<svg id="WORKING_ICONS" data-name="WORKING ICONS" xmlns="http://www.w3.org/2000/svg" width="20" height="20" viewBox="0 0 20 20">
  <title>direction</title>
  <path fill="#ffffff" d="M4.26865,6.57682a0.30457,0.30457,0,0,1,.19617.07182l2.074,1.75018A7.00218,7.00218,0,0,1,8.81064,14.043v3.46088A0.29651,0.29651,0,0,1,8.51447,17.8H7.50793a0.29612,0.29612,0,0,1-.29614-0.29655L7.21558,13.9146a5.42,5.42,0,0,0-1.73517-4.316L3.423,7.86274a0.30454,0.30454,0,0,1-.03372-0.43226l0.649-.74859a0.30466,0.30466,0,0,1,.23035-0.10507m0-.2a0.50345,0.50345,0,0,0-.38147.17406l-0.649.74859a0.50455,0.50455,0,0,0,.05588.71613L5.35144,9.75146a5.2182,5.2182,0,0,1,1.665,4.14405l-0.0047,3.60767A0.49614,0.49614,0,0,0,7.50793,18H8.51447a0.49616,0.49616,0,0,0,.49615-0.49615V14.043A7.25157,7.25157,0,0,0,6.67078,8.24854l-2.077-1.75275a0.50264,0.50264,0,0,0-.32516-0.119h0ZM7.0141,14.043v3.46082A0.49621,0.49621,0,0,0,7.51025,18H8.51678a0.49614,0.49614,0,0,0,.49615-0.49683l-0.0047-3.60767a5.21819,5.21819,0,0,1,1.665-4.144l2.44818-2.06561a0.35758,0.35758,0,0,1,.6405.16266l0.91821,3.1106A0.38663,0.38663,0,0,0,15.41956,10.86L17,3l-8.00476.44965a0.38658,0.38658,0,0,0-.20294.71777l2.94891,1.35016a0.3576,0.3576,0,0,1,.07019.6571L9.35394,8.24854A7.25157,7.25157,0,0,0,7.0141,14.043Z"/>
</svg>

<svg data-name="WORKING ICONS" xmlns="http://www.w3.org/2000/svg" width="20" height="20"><path fill="#fff" d="M4.269 6.577a.305.305 0 0 1 .196.072l2.074 1.75a7.002 7.002 0 0 1 2.272 5.644v3.46a.297.297 0 0 1-.297.297H7.508a.296.296 0 0 1-.296-.297l.004-3.588A5.42 5.42 0 0 0 5.48 9.599L3.423 7.863a.305.305 0 0 1-.034-.433l.65-.748a.305.305 0 0 1 .23-.105m0-.2a.503.503 0 0 0-.382.174l-.649.748a.505.505 0 0 0 .056.717L5.351 9.75a5.218 5.218 0 0 1 1.665 4.145l-.004 3.607a.496.496 0 0 0 .496.497h1.006a.496.496 0 0 0 .497-.496v-3.461a7.252 7.252 0 0 0-2.34-5.794L4.594 6.496a.503.503 0 0 0-.325-.12Zm2.745 7.666v3.46A.496.496 0 0 0 7.51 18h1.007a.496.496 0 0 0 .496-.497l-.005-3.607a5.218 5.218 0 0 1 1.665-4.145l2.448-2.065a.358.358 0 0 1 .64.163l.92 3.11a.387.387 0 0 0 .739-.099L17 3l-8.005.45a.387.387 0 0 0-.203.717l2.95 1.35a.358.358 0 0 1 .07.658L9.353 8.249a7.252 7.252 0 0 0-2.34 5.794Z"/></svg>
